X:2348
T:Grandmother's Dance
O:england
C:Trad
M:4/4
L:1/8
K:G
|:D2|GF GA BA GA|B2G2G3F|E2A2E2F2|
G2DE D2D2|GF GA BA GA|B2G2G3F|E2A2E2F2|
G4G2:|
A2|:B2d2d3c|B2d2d3c|B2d2B2G2|A2FE D2D2|
B2d2d3c|B2d2d2B2|[1G3A B2c2|d4c4:|[2G2B2E2F2|
G4G2


